X:10936
T: Polka  CF (pk09202)
S: Hanny Christen. Bd.X Unterwalden II. Glarus.
S: T\"anze aus Engelberg (1949). S.109-177. S.126 (pk09202) orig. C,F
S: \"Uberliefert durch Karl Feierabend und Sepp Linder (*1883)
%%MIDI program 21
R:polka
M:2/4
L:1/16
O:Switzerland
K:C %%MIDI gchordon
"C"efe2 a3g | "G7"gffe f4 | ^f2g2 a2b2 | "C"d'c'c'b c'2e2 | "Dm"efe2 d2a2 | "C"a2g2 c'2e2 | "G7"bag2 fed2 | "C"c2c2 c2z2 :| 
"G7"g2b2 ^f2a2 | "C"a2gc e^de2 | "G7"a2g2 d^cd2 | "C"a2g2 e^de2 | "G7"g2b2 ^f2a2 | "C"a2gc e^de2 | "D7"d2^fa d'c'ba | "G".g4!>!"G7"g4 | 
|: "G7"g2^f2 =f3d | "C"c2e2 gag2 | "G7"B2d2 gag2 | "C"c'bag fedc | "D7"g2^f2 "G7"=f3d | "C"c2e2 gag2 | "G7"Bcde fgab | "C"c'2c'2 c'2z2:: [K:F]
"F"f2f2 f3g | "C7"f2e2!>!e4 | e2e2 egab | "F"b2a2 agfc | f2f2 f3g | "C7"f2e2 !>!e4 | g2gg gfec | "F"f2f2  f2z2 :| 
% pk09202

